modules/hawcons-filled/icons/icon-17-cloud-snowflakes.svg

<?xml version="1.0" encoding="UTF-8" standalone="no"?>
<svg width="32px" height="32px" viewBox="0 0 32 32" version="1.1" xmlns="http://www.w3.org/2000/svg" xmlns:xlink="http://www.w3.org/1999/xlink" xmlns:sketch="http://www.bohemiancoding.com/sketch/ns">
    <!-- Generator: Sketch 3.0.3 (7891) - http://www.bohemiancoding.com/sketch -->
    <title>icon 17 cloud snowflakes</title>
    <desc>Created with Sketch.</desc>
    <defs></defs>
    <g id="Page-1" stroke="none" stroke-width="1" fill="none" fill-rule="evenodd" sketch:type="MSPage">
        <g id="icon-17-cloud-snowflakes" sketch:type="MSArtboardGroup" fill="#929292">
            <path d="M26.9993494,14.4145295 C28.7676457,15.1852931 30,16.9483386 30,19 C30,21.7558048 27.7616745,24 25.0005601,24 L7.99943992,24 C5.23249418,24 3,21.7614237 3,19 C3,16.9491311 4.23965876,15.1816085 6.01189661,14.4115388 L6.01189661,14.4115388 C6.00400207,14.275367 6,14.1381509 6,14 C6,10.1340066 9.13400656,7 13,7 C15.2979469,7 17.3372745,8.10728055 18.6135384,9.81739735 C19.4525719,9.29909701 20.441357,9 21.5,9 C24.5090248,9 26.9536744,11.4163763 26.9993494,14.4145295 L26.9993494,14.4145295 Z M11,26.6339746 L11,25.4976988 C11,25.2228273 10.7680664,25 10.5,25 C10.2238576,25 10,25.2148438 10,25.4976988 L10,26.6339746 L10,26.6339746 L9.01595628,26.0658367 C8.77791062,25.928401 8.46896969,26.0178477 8.33493649,26.25 C8.1968653,26.4891463 8.27099664,26.7904346 8.51595628,26.9318621 L9.5,27.5 L8.51595628,28.0681379 C8.27791062,28.2055736 8.20090329,28.5178477 8.33493649,28.75 C8.47300768,28.9891463 8.77099664,29.0755908 9.01595628,28.9341633 L10,28.3660254 L10,29.5023012 C10,29.7771727 10.2319336,30 10.5,30 C10.7761424,30 11,29.7851562 11,29.5023012 L11,28.3660254 L11.9840437,28.9341633 C12.2220894,29.071599 12.5310303,28.9821523 12.6650635,28.75 C12.8031347,28.5108537 12.7290034,28.2095654 12.4840437,28.0681379 L11.5,27.5 L12.4840437,26.9318621 C12.7220894,26.7944264 12.7990967,26.4821523 12.6650635,26.25 C12.5269923,26.0108537 12.2290034,25.9244092 11.9840437,26.0658367 L11,26.6339746 L11,26.6339746 L11,26.6339746 Z M23,26.6339746 L23,25.4976988 C23,25.2228273 22.7680664,25 22.5,25 C22.2238576,25 22,25.2148438 22,25.4976988 L22,26.6339746 L22,26.6339746 L21.0159563,26.0658367 C20.7779106,25.928401 20.4689697,26.0178477 20.3349365,26.25 C20.1968653,26.4891463 20.2709966,26.7904346 20.5159563,26.9318621 L21.5,27.5 L20.5159563,28.0681379 C20.2779106,28.2055736 20.2009033,28.5178477 20.3349365,28.75 C20.4730077,28.9891463 20.7709966,29.0755908 21.0159563,28.9341633 L22,28.3660254 L22,29.5023012 C22,29.7771727 22.2319336,30 22.5,30 C22.7761424,30 23,29.7851562 23,29.5023012 L23,28.3660254 L23.9840437,28.9341633 C24.2220894,29.071599 24.5310303,28.9821523 24.6650635,28.75 C24.8031347,28.5108537 24.7290034,28.2095654 24.4840437,28.0681379 L23.5,27.5 L24.4840437,26.9318621 C24.7220894,26.7944264 24.7990967,26.4821523 24.6650635,26.25 C24.5269923,26.0108537 24.2290034,25.9244092 23.9840437,26.0658367 L23,26.6339746 L23,26.6339746 L23,26.6339746 Z M17,27.6339746 L17,26.4976988 C17,26.2228273 16.7680664,26 16.5,26 C16.2238576,26 16,26.2148438 16,26.4976988 L16,27.6339746 L16,27.6339746 L15.0159563,27.0658367 C14.7779106,26.928401 14.4689697,27.0178477 14.3349365,27.25 C14.1968653,27.4891463 14.2709966,27.7904346 14.5159563,27.9318621 L15.5,28.5 L14.5159563,29.0681379 C14.2779106,29.2055736 14.2009033,29.5178477 14.3349365,29.75 C14.4730077,29.9891463 14.7709966,30.0755908 15.0159563,29.9341633 L16,29.3660254 L16,30.5023012 C16,30.7771727 16.2319336,31 16.5,31 C16.7761424,31 17,30.7851562 17,30.5023012 L17,29.3660254 L17.9840437,29.9341633 C18.2220894,30.071599 18.5310303,29.9821523 18.6650635,29.75 C18.8031347,29.5108537 18.7290034,29.2095654 18.4840437,29.0681379 L17.5,28.5 L18.4840437,27.9318621 C18.7220894,27.7944264 18.7990967,27.4821523 18.6650635,27.25 C18.5269923,27.0108537 18.2290034,26.9244092 17.9840437,27.0658367 L17,27.6339746 L17,27.6339746 L17,27.6339746 Z" id="cloud-snowflakes" sketch:type="MSShapeGroup"></path>
        </g>
    </g>
</svg>

<svg width="32" height="32" xmlns="http://www.w3.org/2000/svg"><path d="M27 14.415c1.768.77 3 2.533 3 4.585 0 2.756-2.238 5-5 5H8c-2.768 0-5-2.239-5-5 0-2.05 1.24-3.818 3.012-4.588a7 7 0 0 1 12.602-4.594A5.5 5.5 0 0 1 27 14.414zM11 26.634v-1.136a.504.504 0 0 0-.5-.498c-.276 0-.5.215-.5.498v1.136l-.984-.568a.504.504 0 0 0-.681.184.494.494 0 0 0 .181.682l.984.568-.984.568a.504.504 0 0 0-.181.682c.138.24.436.326.681.184l.984-.568v1.136c0 .275.232.498.5.498.276 0 .5-.215.5-.498v-1.136l.984.568a.504.504 0 0 0 .681-.184.494.494 0 0 0-.181-.682L11.5 27.5l.984-.568a.504.504 0 0 0 .181-.682.494.494 0 0 0-.681-.184l-.984.568zm12 0v-1.136a.504.504 0 0 0-.5-.498c-.276 0-.5.215-.5.498v1.136l-.984-.568a.504.504 0 0 0-.681.184.494.494 0 0 0 .181.682l.984.568-.984.568a.504.504 0 0 0-.181.682c.138.24.436.326.681.184l.984-.568v1.136c0 .275.232.498.5.498.276 0 .5-.215.5-.498v-1.136l.984.568a.504.504 0 0 0 .681-.184.494.494 0 0 0-.181-.682L23.5 27.5l.984-.568a.504.504 0 0 0 .181-.682.494.494 0 0 0-.681-.184l-.984.568zm-6 1v-1.136a.504.504 0 0 0-.5-.498c-.276 0-.5.215-.5.498v1.136l-.984-.568a.504.504 0 0 0-.681.184.494.494 0 0 0 .181.682l.984.568-.984.568a.504.504 0 0 0-.181.682c.138.24.436.326.681.184l.984-.568v1.136c0 .275.232.498.5.498.276 0 .5-.215.5-.498v-1.136l.984.568a.504.504 0 0 0 .681-.184.494.494 0 0 0-.181-.682L17.5 28.5l.984-.568a.504.504 0 0 0 .181-.682.494.494 0 0 0-.681-.184l-.984.568z" fill="#929292" fill-rule="evenodd"/></svg>
